X:1
T:James Gibb editions
T:Psalm 80 (Becker) - Schütz
%%score [ ( 1 2 ) ( 3 4 ) ]
L:1/8
Q:1/4=100
M:2/2
K:C
V:1 treble nm="Soprano Alto"
V:2 treble 
V:3 bass nm="Tenor Bass"
V:4 bass 
V:1
"^Cornelius Becker\n(1561-1604)""^Psalm 80, SWV 177""^Heinrich Schütz\n(1585-1672)" d4 B2 d2 | %1
w: ~Tröst uns, Gott,|
w: sonst kön- nen|
 e2 c2 A2 B2 | c4 c4 | B2 d2 A2 B2 | c4 B4 :|[M:2/2] G4 G2 E2 | A2 G2 F3 F | E2 A2 B2 c2 | %8
w: un- ser * ver-|sicht, laß|uns dein Ant- litz|leuch- ten,|o star- ker|Gott, Herr Ze- ba-|oth, hat denn dein|
w: wir ge- ne- sen|nicht, wenn|du willt von uns|wei- chen,||||
 d2 A2 (c4 | B4) A4 | A4 B3 B | G2 G2 A3 A | F2 F2 A2 A2 | G2 c2 (B4 | G4) A4 | d4 A2 B2 | %16
w: Zorn kein En\-|* de?|Wie lang solln|wir in un- ser|Not auf- he- ben|un- ser Hän\-|* de,|willst doch das|
w: ||||||||
 c2 G2 (B4 | A4) G8 |] %18
w: ||
w: ||
V:2
 G4 G2 G2 | G2 G2 (FE) G2 | G4 G4 | G2 D2 F2 F2 | G4 G4 :|[M:2/2] E4 E2 C2 | F2 E2 D3 D | %7
w: |* * Zu\- * *||||||
 ^C2 E2 E2 E2 | F2 F2 E4- | E4 E4 | ^F4 G3 G | E2 E2 F3 F | D2 D2 F2 F2 | E2 G2 (G4 | D4) ^F4 | %15
w: ||||||||
 ^F4 F2 G2 | G2 E2 (D2 G2- | G2 ^F2) G8 |] %18
w: |Kreuz nicht wen\- *|* * den?|
V:3
 B,4 D2 B,2 | C2 E2 C2 D2 | E4 E4 | D2 B,2 C2 D2 | E4 D4 :|[M:2/2] C4 B,2 A,2 | C2 C2 A,3 A, | %7
 A,2 C2 B,2 A,2 | A,2 D2 (C2 A,2- | A,2 ^G,2) A,4 | D4 D3 D | %11
 C2"^3. Du speisest uns mit Tränenbrot, das Maß ist voll geschänket\nmit Trübsal, Jammer, Angst und Not, damit dein Zorn uns tränket,\nwir sind gesetzt zum Schimpf und Spott unsern Nachbarn und Freunden,\nes zankt mit uns die böse Rott, auch höhnen uns die Feinde,\nsehr groß ist unser Leiden.\n\n7. Ach wende dich, Gott Zebaoth, und schau von deinem Throne,\nsuch uns heim, sieh an unser Not, des lieben Weinstocks schone,\nden du durch deine rechte Hand gepflanzet dir zu eigen,\nhalt ihn in Bau und machs bekannt, daß du uns Guts erzeigest,\nvon deinem Erb nicht weichest.\n\n9. Laß uns, Herr, leben stets mit dir, so wolln wir nicht abweichen,\ndein'm heilgen Namen für und für Lob, Ehr und Preis erzeigen,\nwenn du uns tröst, Herr Zebaoth, und läßt dein Antlitz leuchten,\nso g'nesen wir in unser Not und bleiben allzugleiche\nErben in deinem Reiche." C2 C3 C | %12
 _B,2 B,2 C2 C2 | C2 E2 (D4 | B,4) D4 | A,4 D2 D2 | E2 C2 (B,3 C | D4) D8 |] %18
V:4
 G,4 G,2 G,2 | C,2 C,2 (F,A,) G,2 | C,4 C,4 | G,2 G,2 F,2 D,2 | C,4 G,4 :|[M:2/2] C,4 G,2 A,2 | %6
 F,2 C,2 D,3 D, | A,,2 A,2 ^G,2 A,2 | D,2 D,2 (A,4 | E,4) A,4 | D,4 G,3 G, | C,2 C,2 F,3 F, | %12
 _B,,2 B,,2 F,2 F,2 | C,2 C,2 (G,4 | G,,4) D,4 | D,4 D,2 G,2 | C,2 C,2 (G,4 | D,4) G,8 |] %18

